X:1
T:Title
%%score { ( 1 3 ) | ( 2 4 5 ) }
L:1/8
M:3/4
K:Eb
V:1 treble nm="Grand Piano"
V:3 treble 
V:2 bass 
V:4 bass 
V:5 bass 
V:1
 z2 z2[Q:1/4=100] GG | G3 B cc | B4 BB | [Ge]3 [GB] [FA][EG] | [DF]4 [EG][FG] | %5
 [Ec]3 [Ec] [Ge][Ge] | e c3 GG | [Ec]3 [Ec] [Ge][Ge] | e d3 cc | B3 G [CEG][CDF] | %10
[M:4/4] [=B,DG]6 [Ec][Ec] |[M:3/4] [EB]3 [EG] [EG][A,DF] |[M:2/4] [G,E]4 |[M:4/4] z2 G6 | %14
 z2 [DF]6[K:bass] | [G,CE][F,=B,D][E,C][K:treble][CF]- [CF]2 [EG]2- |[M:2/4] [EG][DF] E2- | %17
 E2 z2 |] %18
V:2
 z2 z2 [E,B,E][E,B,E] | [E,B,E]3 [E,G,E] [E,A,E][E,A,E] | [E,G,E]4 [E,G,E][E,G,E] | %3
 [E,B,]3 [E,B,] [E,B,][E,B,] | [B,,B,]4 [E,B,][D,=B,] | [C,C]3 [C,G,] [C,C][C,C] | %6
 [G,CG] [G,=B,G]3 [G,B,F][G,B,F] | [C,C]3 [C,G,] [C,C][C,C] | [G,CG] [G,=B,G]3 [A,E][A,E] | %9
 [G,B,E]3[K:bass] [E,B,E] A,,A,, |[M:4/4] G,,6 [A,,E,][A,,F,] | %11
[M:3/4] [B,,G,]3 [B,,B,] [B,,B,]B,, |[M:2/4] E,4 |[M:4/4] z2[K:treble] E6[K:bass] | E,2 z2 z4 | %15
 C,G,,A,,[A,,E,]- [A,,E,]2 [B,,B,]2- |[M:2/4] [B,,B,][B,,A,] [E,G,]2- | [E,G,]2 z2 |] %18
V:3
 x6 | x6 | x6 | x6 | x6 | x6 | x6 | x6 | x6 | x6 |[M:4/4] x8 |[M:3/4] x6 |[M:2/4] x4 | %13
[M:4/4] [GB]A z2 B,B, B,2 | [GB]G z2[K:bass] B,B, B,2 | x3[K:treble] x5 |[M:2/4] x4 | x4 |] %18
V:4
 x6 | x6 | x6 | x6 | x6 | x6 | x6 | x6 | x6 | x3[K:bass] x3 |[M:4/4] x8 |[M:3/4] x6 |[M:2/4] x4 | %13
[M:4/4] z[K:treble] F z2[K:bass] E,E, E,2 | z E B,,2 B,,B,, B,,2 | x8 |[M:2/4] x4 | x4 |] %18
V:5
 x6 | x6 | x6 | x6 | x6 | x6 | x6 | x6 | x6 | x3[K:bass] x3 |[M:4/4] x8 |[M:3/4] x6 |[M:2/4] x4 | %13
[M:4/4] E,4[K:treble][K:bass] z4 | x8 | x8 |[M:2/4] x4 | x4 |] %18

